X:1
T: Mr. James Munro
C:Alexander Walker
R:Strathspey
Q: 128
K:E
M:4/4
L:1/16
|:c2|BE3 G3E BE3 E3G|F3G A3B c4 c3e|BE3 G3E B3E G3E|D3B, F3D E4 E2c2|
BE3 G3E BE3 E3G|F3G A3B c4 c3e|BE3 G3E B3E G3E|D3B, F3D E4 E2a2|
b3e agfd e3c B3G|((3AcA) ((3GBG) cF3 F3a|b3e agfd e3c B3G|A3c B3a ge3 e3a|
b3e agfd e3c B3G|A3c G3B cF3 F3A|GB3 Ac3 Ba3 gf3|edcB Aagf ge3 e2:|
